svgs/sharp-light/truck-ladder.svg

<svg xmlns="http://www.w3.org/2000/svg" viewBox="0 0 640 512"><!--! Font Awesome Pro 6.6.0 by @fontawesome - https://fontawesome.com License - https://fontawesome.com/license (Commercial License) Copyright 2024 Fonticons, Inc. --><path d="M352 32l0 32-16 0 0 96 16 0 0 32L0 192l0-32 16 0 0-96L0 64 0 32l352 0zM304 64l-64 0 0 96 64 0 0-96zm-96 0l-64 0 0 96 64 0 0-96zm-96 0L48 64l0 96 64 0 0-96zM384 96l16 0 96 0 6.6 0 4.7 4.7 128 128 4.7 4.7 0 6.6 0 160 0 16-16 0-48 0c0 53-43 96-96 96s-96-43-96-96l-128 0c0 53-43 96-96 96s-96-43-96-96l-48 0L0 416l0-16L0 240l0-16 16 0 368 0 0-112 0-16zm32 128l169.4 0-96-96L416 128l0 96zm192 32L32 256l0 128 37.5 0c13.2-37.3 48.7-64 90.5-64s77.4 26.7 90.5 64l138.9 0c13.2-37.3 48.7-64 90.5-64s77.4 26.7 90.5 64l37.5 0 0-128zM224 416A64 64 0 1 0 96 416a64 64 0 1 0 128 0zm256 64a64 64 0 1 0 0-128 64 64 0 1 0 0 128z"/></svg>

<svg xmlns="http://www.w3.org/2000/svg" viewBox="0 0 640 512"><!--! Font Awesome Pro 6.5.2 by @fontawesome - https://fontawesome.com License - https://fontawesome.com/license (Commercial License) Copyright 2024 Fonticons, Inc. --><path d="M352 32V64H336v96h16v32H0V160H16V64H0V32H352zM304 64H240v96h64V64zm-96 0H144v96h64V64zm-96 0H48v96h64V64zM384 96h16 96 6.6l4.7 4.7 128 128 4.7 4.7V240 400v16H624 576c0 53-43 96-96 96s-96-43-96-96H256c0 53-43 96-96 96s-96-43-96-96H16 0V400 240 224H16 384V112 96zm32 128H585.4l-96-96H416v96zm192 32H32V384H69.5c13.2-37.3 48.7-64 90.5-64s77.4 26.7 90.5 64H389.5c13.2-37.3 48.7-64 90.5-64s77.4 26.7 90.5 64H608V256zM224 416A64 64 0 1 0 96 416a64 64 0 1 0 128 0zm256 64a64 64 0 1 0 0-128 64 64 0 1 0 0 128z"/></svg>
